images/oneall/google.svg

<?xml version="1.0" encoding="UTF-8"?>
<svg width="25px" height="25px" viewBox="0 0 25 25" version="1.1" xmlns="http://www.w3.org/2000/svg" xmlns:xlink="http://www.w3.org/1999/xlink">
    <!-- Generator: Sketch 44.1 (41455) - http://www.bohemiancoding.com/sketch -->
    <title>ic-google</title>
    <desc>Created with Sketch.</desc>
    <defs></defs>
    <g id="Flows-to-create-CR" stroke="none" stroke-width="1" fill="none" fill-rule="evenodd">
        <g id="Login" transform="translate(-283.000000, -279.000000)" fill-rule="nonzero">
            <g id="Group-7" transform="translate(263.000000, 168.000000)">
                <g id="Group-4">
                    <g id="Group-10" transform="translate(0.000000, 101.000000)">
                        <g id="ic-google" transform="translate(20.000000, 10.000000)">
                            <path d="M24.9141221,12.733874 C24.9141221,11.7096374 24.8293153,10.9622137 24.6457782,10.1871183 L12.7112868,10.1871183 L12.7112868,14.8100191 L19.7165641,14.8100191 C19.5753817,15.958874 18.8127045,17.6890267 17.1178338,18.8516221 L17.0940762,19.0063931 L20.8675417,21.8711832 L21.1289726,21.8967557 C23.5299501,19.7236641 24.9141221,16.5263359 24.9141221,12.733874" id="Shape" fill="#4285F4"></path>
                            <path d="M12.7112868,24.9141221 C16.1432856,24.9141221 19.0244781,23.8067748 21.1289726,21.8967557 L17.1178338,18.8516221 C16.0444579,19.5852099 14.6038129,20.0973282 12.7112868,20.0973282 C9.34987926,20.0973282 6.4969232,17.9243321 5.47992289,14.9208015 L5.33085372,14.9332061 L1.40715065,17.9090649 L1.35583814,18.048855 C3.446117,22.1181298 7.73971802,24.9141221 12.7112868,24.9141221" id="Shape" fill="#34A853"></path>
                            <path d="M5.47992289,14.9208015 C5.21157891,14.1457061 5.05627824,13.3151718 5.05627824,12.4570611 C5.05627824,11.598855 5.21157891,10.768416 5.46580464,9.99332061 L5.45869684,9.82824427 L1.48582334,6.80458015 L1.35583814,6.86517176 C0.494333229,8.55381679 0,10.4500954 0,12.4570611 C0,14.4640267 0.494333229,16.3602099 1.35583814,18.048855 L5.47992289,14.9208015" id="Shape" fill="#FBBC05"></path>
                            <path d="M12.7112868,4.81669847 C15.0981461,4.81669847 16.70821,5.82709924 17.6262852,6.67146947 L21.213682,3.23883588 C19.0104572,1.23187023 16.1432856,0 12.7112868,0 C7.73971802,0 3.446117,2.79589695 1.35583814,6.86517176 L5.46580464,9.99332061 C6.4969232,6.98979008 9.34987926,4.81669847 12.7112868,4.81669847" id="Shape" fill="#EB4335"></path>
                        </g>
                    </g>
                </g>
            </g>
        </g>
    </g>
</svg>

<svg width="25" height="25" viewBox="0 0 25 25" xmlns="http://www.w3.org/2000/svg"><title>ic-google</title><g fill-rule="nonzero" fill="none"><path d="M24.914 12.734c0-1.024-.085-1.772-.268-2.547H12.71v4.623h7.006c-.142 1.149-.904 2.879-2.6 4.042l-.023.154 3.774 2.865.261.026c2.401-2.173 3.785-5.37 3.785-9.163" fill="#4285F4"/><path d="M12.711 24.914c3.432 0 6.313-1.107 8.418-3.017l-4.011-3.045c-1.074.733-2.514 1.245-4.407 1.245a7.638 7.638 0 0 1-7.231-5.176l-.15.012-3.923 2.976-.051.14c2.09 4.07 6.384 6.865 11.355 6.865" fill="#34A853"/><path d="M5.48 14.92a7.53 7.53 0 0 1-.424-2.463c0-.858.156-1.689.41-2.464l-.007-.165-3.973-3.023-.13.06A12.266 12.266 0 0 0 0 12.457c0 2.007.494 3.903 1.356 5.592L5.48 14.92" fill="#FBBC05"/><path d="M12.711 4.817c2.387 0 3.997 1.01 4.915 1.854l3.588-3.432C19.01 1.232 16.144 0 12.71 0 7.74 0 3.446 2.796 1.356 6.865l4.11 3.128C6.496 6.99 9.35 4.817 12.71 4.817" fill="#EB4335"/></g></svg>
